X: 7750
T:Sauter Lapins (1)
R:Bourr\'ee
O:France
M:6/8
K:G
DEF GAG | FEF G2D | DEF GAG | FEF G3 ::\
B2B A3 | c2c B3 | d2d dcB | AGA B2G |\
B2B A3 | c2c B3 | d2d dcB | AGF G3:|
